X: 683
P: Saint Patrick's Day
O:Trad
M:6/8
K:G
|: D \
| "G"G>AG GBd | "C"e>fe "G"dBG | "D"AGA "G"BGD |1,3 "C"E>FE "D"E2 :|2,4 "C"E2"D"F "G fine"G2 :|
|: B \
| "D"def "G"g2g | "D"fed "Em"edB | "D"def "G"g2g |1,3 "D"fed "Em"e3 \
                                                :|2,4 "D"fed "Em"efg :|
